svgs/duotone/pen-nib-slash.svg

<svg xmlns="http://www.w3.org/2000/svg" viewBox="0 0 640 512"><!--! Font Awesome Pro 6.1.1 by @fontawesome - https://fontawesome.com License - https://fontawesome.com/license (Commercial License) Copyright 2022 Fonticons, Inc. --><defs><style>.fa-secondary{opacity:.4}</style></defs><path class="fa-primary" d="M5.112 9.196C13.29-1.236 28.37-3.065 38.81 5.112L630.8 469.1C641.2 477.3 643.1 492.4 634.9 502.8C626.7 513.2 611.6 515.1 601.2 506.9L9.196 42.89C-1.236 34.71-3.065 19.63 5.112 9.196V9.196z"/><path class="fa-secondary" d="M208.1 137.8L351.1 94.6L481.4 224L450.3 327.6L208.1 137.8zM67.76 445.8L146.4 211.3L231.4 278.3C226.7 285.8 223.1 294.6 223.1 304C223.1 311.4 225.7 318.4 228.7 324.7L75.11 478.3C66.81 469.7 63.96 457.2 67.76 445.8V445.8zM271.1 352C285.5 352 297.7 346.4 306.4 337.4L404.9 415C401.6 416.8 398.1 418.4 394.5 419.6L130.2 508.2C118.8 512 106.3 509.2 97.74 500.9L251.3 347.3C257.6 350.3 264.6 352 271.1 352H271.1zM432.4 18.34C454.3-3.526 489.7-3.526 511.6 18.34L557.7 64.4C579.5 86.27 579.5 121.7 557.7 143.6L501.9 199.3L376.7 74.06L432.4 18.34z"/></svg>

<svg xmlns="http://www.w3.org/2000/svg" viewBox="0 0 640 512"><!--! Font Awesome Pro 6.4.2 by @fontawesome - https://fontawesome.com License - https://fontawesome.com/license (Commercial License) Copyright 2023 Fonticons, Inc. --><path class="fa-primary" style="fill:var(--fa-primary-color,inherit);opacity:var(--fa-primary-opacity,1);" d="M5.1 9.2C13.3-1.2 28.4-3.1 38.8 5.1l592 464c10.4 8.2 12.3 23.3 4.1 33.7s-23.3 12.3-33.7 4.1L9.2 42.9C-1.2 34.7-3.1 19.6 5.1 9.2z"/><path class="fa-secondary" style="fill:var(--fa-secondary-color,inherit);opacity:var(--fa-secondary-opacity,.4);" d="M306.4 337.4L404.9 415c-3.3 1.8-6.8 3.4-10.5 4.6L130.2 508.2c-11.3 3.8-23.9 1-32.4-7.3L251.3 347.3c6.3 3 13.3 4.7 20.7 4.7c13.5 0 25.7-5.6 34.4-14.6zm-160-126.1l85 67c-4.7 7.4-7.4 16.2-7.4 25.7c0 7.4 1.7 14.4 4.7 20.7L75.1 478.3c-8.3-8.6-11.2-21.1-7.3-32.4l78.6-234.5zm332.3 21.9l-28.3 94.4L208.1 137.8 342.8 97.3l9.2-2.8L481.4 224l-2.8 9.2zM432.4 18.3c21.9-21.9 57.3-21.9 79.2 0l46.1 46.1c21.9 21.9 21.9 57.3 0 79.2l-55.7 55.7L376.7 74.1l55.7-55.7z"/></svg>
